assets/features/channel/southeast-asia/fave.svg

<svg width="80" height="80" viewBox="0 0 80 80" fill="none" xmlns="http://www.w3.org/2000/svg">
<rect width="80" height="80" rx="8" fill="#DF2B76"/>
<path d="M23.6052 33.3477C24.7679 33.5532 25.9035 33.6966 27.0043 33.9564C28.105 34.2161 28.0469 34.2549 27.8608 35.2668C26.6128 35.2668 25.3842 35.2668 24.1594 35.2668C23.6129 35.2668 23.4501 35.4568 23.3842 36.0112C22.9967 40.4776 22.5858 44.9285 21.5858 49.3289C21.2023 51.1535 20.2625 52.8142 18.896 54.0822C17.4581 55.4043 15.7295 55.5904 13.9233 55.3229C13.4036 55.2009 12.9299 54.9316 12.5591 54.5475C11.7219 53.772 11.8226 53.2835 12.8769 52.6865C13.0435 52.923 13.2063 53.1672 13.3807 53.4037C14.1288 54.4079 14.9698 54.4428 15.6132 53.4037C16.1209 52.6194 16.4905 51.754 16.7062 50.8449C17.3806 47.4447 17.962 44.0251 18.5356 40.6055C18.7604 39.2873 18.8766 37.9498 19.0627 36.4648L15.9039 37.7094L15.2915 36.4765C16.4775 35.829 17.6519 35.2048 18.803 34.5379C19.0599 34.3894 19.2478 34.1456 19.3262 33.8595C19.5123 32.6072 19.5278 31.3239 19.7913 30.0909C20.0082 28.9259 20.3837 27.7962 20.9076 26.7334C22.3688 23.9497 26.2911 23.938 28.1786 25.233C28.4503 25.42 28.6965 25.6416 28.9112 25.8921C29.8375 26.9893 29.6863 28.071 28.4422 28.8231C28.2506 28.9205 28.0298 28.9439 27.8221 28.8891C27.4849 28.7921 27.1787 28.5983 26.8453 28.4781C26.0043 28.1796 25.578 27.6561 25.7214 26.7101C25.7562 26.4775 25.5392 25.9851 25.4617 25.989C25.1027 25.9837 24.7517 26.0953 24.4617 26.3069C24.2134 26.5943 24.0663 26.9552 24.0431 27.3343C23.8687 29.3543 23.7447 31.3859 23.6052 33.3477Z" fill="white"/>
<path d="M36.2634 35.9804C36.3797 35.0034 36.9921 35.0383 37.6122 35.1856C38.6664 35.4299 39.7051 35.7207 40.7671 35.9998C39.8214 39.9932 38.8602 43.8586 38.9997 48.0963L41.0966 47.1425L41.6818 48.3366C40.3291 49.5812 38.8602 50.5853 37.0308 50.849C35.6161 51.0506 34.8681 50.5427 34.2596 49.0306L33.6201 49.5191C32.6434 50.2713 31.6163 50.9265 30.3179 50.88C29.4328 50.846 28.5866 50.5072 27.9227 49.9207C27.2588 49.3343 26.8178 48.5364 26.6746 47.662C25.9622 44.5978 26.322 41.3819 27.6939 38.5509C28.5234 36.8644 29.7288 35.5113 31.6899 35.0926C32.9203 34.873 34.1884 35.0381 35.3216 35.5656C35.6045 35.678 35.8758 35.8099 36.2634 35.9804ZM35.6394 37.4925C33.9573 36.6938 33.0387 36.9342 32.4108 38.7215C31.8548 40.3436 31.4652 42.0181 31.2481 43.7191C31.1702 44.8262 31.2432 45.9388 31.4651 47.0262C31.479 47.1741 31.5254 47.317 31.6012 47.4448C31.6769 47.5725 31.78 47.6818 31.9031 47.7649C32.0262 47.848 32.1662 47.9027 32.3129 47.9251C32.4597 47.9476 32.6096 47.9372 32.7519 47.8947C33.7286 47.7318 34.1898 47.3286 34.2402 46.623C34.2984 45.8476 34.3371 45.0722 34.465 44.2967C34.8371 42.0364 35.2402 39.7994 35.6394 37.4925Z" fill="white"/>
<path d="M60.0495 45.0491C60.1425 45.5453 60.1929 45.9718 60.3131 46.3789C60.7588 47.9297 61.9448 48.6237 63.4757 48.1197C64.4583 47.7267 65.4137 47.2696 66.3361 46.7511L67.0493 47.7281C65.433 49.3487 63.6463 50.5778 61.344 50.8065C57.817 51.1593 55.7473 49.3991 55.3559 45.8516C55.1357 44.1165 55.3028 42.3542 55.8442 40.6913C57.007 37.2019 60.3828 34.8485 63.8905 35.0114C66.9252 35.1509 68.5415 37.2368 67.8361 40.1368C67.6605 40.8133 67.3423 41.4444 66.9031 41.988C66.464 42.5316 65.914 42.9751 65.2896 43.2889C63.8443 44.1335 62.2467 44.6855 60.5883 44.9134C60.4057 44.9465 60.2259 44.9918 60.0495 45.0491ZM59.9953 43.192C62.6541 43.1416 64.7664 39.5281 63.5068 37.3105C63.4409 37.1787 63.3459 37.0635 63.2292 36.9735C63.113 36.8834 62.9773 36.8208 62.8335 36.7902C62.6893 36.7597 62.5401 36.762 62.3971 36.797C62.2541 36.8321 62.1208 36.8989 62.0068 36.9925C61.6037 37.2916 61.2793 37.6841 61.0611 38.1363C60.3856 39.7377 60.0235 41.454 59.9953 43.192Z" fill="white"/>
<path d="M42.9185 46.8708C43.0619 44.4166 43.1821 41.9624 43.3565 39.5044C43.4437 38.384 43.1107 37.2714 42.4224 36.3833C42.0852 35.9336 42.1279 35.6079 42.6782 35.4994C43.7317 35.2463 44.8057 35.088 45.8874 35.0264C47.5114 35.0031 48.3873 35.8405 48.3524 37.4611C48.2693 39.0753 48.1012 40.6839 47.8486 42.2803C47.678 43.5869 47.3835 44.878 47.2556 46.1845C47.2091 46.6886 47.4726 47.2236 47.5928 47.7354C48.1083 47.5725 48.7168 47.5376 49.116 47.2275C50.4013 46.2254 51.3792 44.8818 51.9377 43.3504C52.0416 43.1335 52.0737 42.889 52.0292 42.6525C51.9846 42.416 51.8656 42.2 51.6896 42.0361C51.1672 41.4838 50.6729 40.9053 50.209 40.303C50.0194 40.0798 49.9139 39.7972 49.9105 39.5044C50.0209 37.9531 50.6614 36.4869 51.7245 35.352C51.8501 35.2419 51.9962 35.1578 52.1547 35.1046C52.3129 35.0513 52.4803 35.03 52.647 35.0419C53.29 35.0857 53.89 35.3814 54.3163 35.8648C54.743 36.3481 54.962 36.9802 54.926 37.624C54.8961 39.8996 54.376 42.1421 53.4008 44.1982C52.4253 46.2544 51.018 48.0758 49.2749 49.5382C48.4538 50.2665 47.4276 50.7229 46.337 50.8448C44.3526 51.0735 43.0542 50.0151 42.9069 48.0106C42.8953 47.6346 42.9185 47.2507 42.9185 46.8708Z" fill="white"/>
</svg>

<svg xmlns="http://www.w3.org/2000/svg" width="80" height="80" fill="none" viewBox="0 0 80 80"><rect width="80" height="80" fill="#df2b76" rx="8"/><path fill="#fff" d="M23.605 33.348c1.163.205 2.299.349 3.4.608 1.1.26 1.042.299.856 1.31h-3.702c-.546 0-.709.19-.775.745-.387 4.467-.798 8.917-1.798 13.318a9 9 0 0 1-2.69 4.753c-1.438 1.322-3.167 1.508-4.973 1.24a2.8 2.8 0 0 1-1.364-.775c-.837-.775-.736-1.264.318-1.86.166.236.33.48.504.717.748 1.004 1.589 1.039 2.232 0a8.2 8.2 0 0 0 1.093-2.56c.675-3.4 1.256-6.819 1.83-10.239.224-1.318.34-2.655.527-4.14l-3.16 1.244-.612-1.233c1.186-.647 2.36-1.271 3.512-1.938.257-.149.445-.392.523-.678.186-1.253.202-2.536.465-3.77a13 13 0 0 1 1.117-3.357c1.46-2.783 5.383-2.795 7.27-1.5q.41.282.733.66c.926 1.096.775 2.178-.469 2.93a.88.88 0 0 1-.62.066c-.337-.097-.643-.29-.977-.41-.84-.3-1.267-.823-1.124-1.769.035-.233-.182-.725-.26-.721a1.66 1.66 0 0 0-1 .318 1.73 1.73 0 0 0-.418 1.027c-.174 2.02-.298 4.052-.438 6.014m12.658 2.632c.117-.977.73-.942 1.35-.794 1.053.244 2.092.535 3.154.814-.946 3.993-1.907 7.859-1.767 12.096l2.097-.953.585 1.194c-1.353 1.244-2.822 2.248-4.651 2.512-1.415.202-2.163-.306-2.771-1.818l-.64.488c-.977.752-2.004 1.407-3.302 1.361a3.84 3.84 0 0 1-3.643-3.218 13.75 13.75 0 0 1 1.019-9.111c.83-1.687 2.035-3.04 3.996-3.458a6.1 6.1 0 0 1 3.632.473c.282.112.554.244.941.414m-.624 1.513c-1.682-.8-2.6-.559-3.228 1.228a25.3 25.3 0 0 0-1.163 4.998 12.2 12.2 0 0 0 .217 3.307 1.005 1.005 0 0 0 1.287.869c.977-.163 1.438-.566 1.488-1.272.058-.775.097-1.55.225-2.326.372-2.26.775-4.498 1.174-6.804M60.05 45.05c.093.495.143.922.263 1.329.446 1.55 1.632 2.245 3.163 1.74q1.475-.59 2.86-1.368l.713.977c-1.616 1.62-3.403 2.85-5.705 3.078-3.527.353-5.597-1.407-5.988-4.954a11.85 11.85 0 0 1 .488-5.16c1.163-3.49 4.539-5.843 8.047-5.68 3.034.139 4.65 2.225 3.945 5.125a4.9 4.9 0 0 1-2.546 3.152 12.8 12.8 0 0 1-4.702 1.624 4 4 0 0 0-.538.136m-.055-1.858c2.66-.05 4.771-3.664 3.512-5.882a.98.98 0 0 0-1.11-.513 1 1 0 0 0-.39.196 3.1 3.1 0 0 0-.946 1.143 13.6 13.6 0 0 0-1.066 5.056M42.919 46.87c.143-2.453.263-4.908.438-7.366a4.52 4.52 0 0 0-.935-3.12c-.337-.45-.294-.776.256-.885a18 18 0 0 1 3.21-.473c1.623-.023 2.5.814 2.464 2.435a46 46 0 0 1-.503 4.82c-.171 1.306-.465 2.597-.593 3.904-.047.504.217 1.039.337 1.55.515-.163 1.124-.197 1.523-.508a8.7 8.7 0 0 0 2.822-3.877 1.13 1.13 0 0 0-.248-1.314 23 23 0 0 1-1.481-1.733 1.26 1.26 0 0 1-.299-.799 6.78 6.78 0 0 1 1.815-4.152 1.26 1.26 0 0 1 .922-.31 2.45 2.45 0 0 1 2.279 2.582 15.83 15.83 0 0 1-5.651 11.914 5.3 5.3 0 0 1-2.938 1.307c-1.984.229-3.283-.83-3.43-2.834-.012-.376.012-.76.012-1.14"/></svg>
